X: 15096
T: Getting There
R: reel
M: 4/4
K: Edorian
|:E2BE AFDF|EGBG A2GF|EGBe dBAF|B,DFA dBAF|
E2BE AFDF|EGBG A2Bc|dBcd BccB|EFAB FEED:|
B3B- BB cd|efed BE BA|c3A AABA|EFBF FEED|
B3B- BB cd|efed BE BA|c3A AABA|EFBF FEED
B3B- BB cd|efed BE BA|c3A A2Bc|dBcd BccB|
B3B- BB cd|efed BE BA|c3A AABA|EFBF FEED|
|:E2BE AFDF|EGBG A2GF|EGBe dBAF|B,DFA dBAF|
E2BE AFDF|EGBG A2Bc|dBcd BccB|EFAB FEED:|
B3B- BB cd|efed BE BA|c3A AABA|EFBF FEED|
B3B- BB cd|efed BE BA|c3A AABA|EFBF FEED
B3B- BB cd|efed BE BA|c3A A2Bc|dBcd BccB|
e4- ed dc|d4-dc cB|A4 d4|EFAB FEED||

